dist/svgs/unicons/line/squint.svg

<svg xmlns="http://www.w3.org/2000/svg" data-name="Layer 1" viewBox="0 0 24 24"><path d="M15 14H9a1 1 0 000 2h6a1 1 0 000-2zm-5.92-1.79l1.5-1.5a1 1 0 000-1.42l-1.5-1.5a1 1 0 00-1.42 1.42l.8.79-.8.79a1 1 0 000 1.42 1 1 0 00.71.29 1 1 0 00.71-.29zM12 2a10 10 0 1010 10A10 10 0 0012 2zm0 18a8 8 0 118-8 8 8 0 01-8 8zm4.58-12.21a1 1 0 00-1.42 0l-1.5 1.5a1 1 0 000 1.42l1.5 1.5a1 1 0 00.71.29 1 1 0 00.71-.29 1 1 0 000-1.42l-.79-.79.79-.79a1 1 0 000-1.42z"/></svg>

<svg xmlns="http://www.w3.org/2000/svg" data-name="Layer 1" viewBox="0 0 24 24"><path d="M15,14H9a1,1,0,0,0,0,2h6a1,1,0,0,0,0-2ZM9.08,12.21l1.5-1.5a1,1,0,0,0,0-1.42l-1.5-1.5A1,1,0,0,0,7.66,9.21l.8.79-.8.79a1,1,0,0,0,0,1.42,1,1,0,0,0,.71.29A1,1,0,0,0,9.08,12.21ZM12,2A10,10,0,1,0,22,12,10,10,0,0,0,12,2Zm0,18a8,8,0,1,1,8-8A8,8,0,0,1,12,20ZM16.58,7.79a1,1,0,0,0-1.42,0l-1.5,1.5a1,1,0,0,0,0,1.42l1.5,1.5a1,1,0,0,0,.71.29,1,1,0,0,0,.71-.29,1,1,0,0,0,0-1.42L15.79,10l.79-.79A1,1,0,0,0,16.58,7.79Z"/></svg>
